packages/tokens/icons/report2/size24Px.svg

<svg viewBox="0 0 24 24" fill="none" xmlns="http://www.w3.org/2000/svg" width="1em" height="1em"><path d="M20 7C20.2761 7 20.5 6.77614 20.5 6.5C20.5 6.22386 20.2761 6 20 6V7ZM17.0858 3.08579L17.4393 2.73223L17.0858 3.08579ZM18.5 21.625L5.5 21.625V22.625L18.5 22.625V21.625ZM4 20.125L4 4.5H3L3 20.125H4ZM5.5 3L15.6716 3V2L5.5 2V3ZM20 7.32843L20 20.125H21L21 7.32843H20ZM16 3V4.5H17V3L16 3ZM18.5 7H20V6L18.5 6V7ZM16.7322 3.43934L19.5607 6.26777L20.2678 5.56066L17.4393 2.73223L16.7322 3.43934ZM16 4.5C16 5.88071 17.1193 7 18.5 7V6C17.6716 6 17 5.32843 17 4.5H16ZM21 7.32843C21 6.66539 20.7366 6.0295 20.2678 5.56066L19.5607 6.26777C19.842 6.54907 20 6.9306 20 7.32843H21ZM15.6716 3C16.0694 3 16.4509 3.15804 16.7322 3.43934L17.4393 2.73223C16.9705 2.26339 16.3346 2 15.6716 2V3ZM5.5 21.625C4.67157 21.625 4 20.9534 4 20.125H3C3 21.5057 4.11929 22.625 5.5 22.625V21.625ZM18.5 22.625C19.8807 22.625 21 21.5057 21 20.125H20C20 20.9534 19.3284 21.625 18.5 21.625V22.625ZM4 4.5C4 3.67157 4.67157 3 5.5 3V2C4.11929 2 3 3.11929 3 4.5H4Z" fill="currentColor"/><path d="M14 14.5H18M14 16.5H18M14 18.5H16.8" stroke="currentColor" stroke-linecap="round"/><circle cx="9.5" cy="16.5" r="3" stroke="currentColor"/><path d="M9.5 13.875V16.5L11.5 18.5" stroke="currentColor" stroke-linejoin="round"/><path d="M6 10.4286L9 7L12 10.5L14 8L16 10.5L17.5 8.5" stroke="currentColor" stroke-linecap="round" stroke-linejoin="round"/></svg>

<svg xmlns="http://www.w3.org/2000/svg" fill="none" viewBox="0 0 24 24" width="1em" height="1em"><path fill="currentColor" d="M20 7a.5.5 0 0 0 0-1v1Zm-2.914-3.914.353-.354-.353.354ZM18.5 21.625h-13v1h13v-1ZM4 20.125V4.5H3v15.625h1ZM5.5 3h10.172V2H5.5v1ZM20 7.328v12.797h1V7.328h-1ZM16 3v1.5h1V3h-1Zm2.5 4H20V6h-1.5v1Zm-1.768-3.56 2.829 2.828.707-.707-2.829-2.829-.707.707ZM16 4.5A2.5 2.5 0 0 0 18.5 7V6A1.5 1.5 0 0 1 17 4.5h-1Zm5 2.828a2.5 2.5 0 0 0-.732-1.767l-.707.707A1.5 1.5 0 0 1 20 7.328h1ZM15.672 3a1.5 1.5 0 0 1 1.06.44l.707-.708A2.5 2.5 0 0 0 15.672 2v1ZM5.5 21.625a1.5 1.5 0 0 1-1.5-1.5H3a2.5 2.5 0 0 0 2.5 2.5v-1Zm13 1a2.5 2.5 0 0 0 2.5-2.5h-1a1.5 1.5 0 0 1-1.5 1.5v1ZM4 4.5A1.5 1.5 0 0 1 5.5 3V2A2.5 2.5 0 0 0 3 4.5h1Z"/><path stroke="currentColor" stroke-linecap="round" d="M14 14.5h4m-4 2h4m-4 2h2.8"/><circle cx="9.5" cy="16.5" r="3" stroke="currentColor"/><path stroke="currentColor" stroke-linejoin="round" d="M9.5 13.875V16.5l2 2"/><path stroke="currentColor" stroke-linecap="round" stroke-linejoin="round" d="M6 10.429 9 7l3 3.5L14 8l2 2.5 1.5-2"/></svg>
